svg/icon/ins.svg

<svg xmlns="http://www.w3.org/2000/svg" xmlns:xlink="http://www.w3.org/1999/xlink" width="32" height="32" viewBox="0 0 32 32"><defs><linearGradient id="ins-c" x1="50%" x2="50%" y1="0%" y2="100%"><stop offset="0%" stop-color="#FFF" stop-opacity=".5"/><stop offset="100%" stop-opacity=".5"/></linearGradient><circle id="ins-b" cx="16" cy="15" r="15"/><filter id="ins-a" width="111.7%" height="111.7%" x="-5.8%" y="-4.2%" filterUnits="objectBoundingBox"><feOffset dy=".5" in="SourceAlpha" result="shadowOffsetOuter1"/><feGaussianBlur in="shadowOffsetOuter1" result="shadowBlurOuter1" stdDeviation=".5"/><feComposite in="shadowBlurOuter1" in2="SourceAlpha" operator="out" result="shadowBlurOuter1"/><feColorMatrix in="shadowBlurOuter1" values="0 0 0 0 0 0 0 0 0 0 0 0 0 0 0 0 0 0 0.199473505 0"/></filter><filter id="ins-d" width="115.9%" height="115.9%" x="-8%" y="-5.7%" filterUnits="objectBoundingBox"><feOffset dy=".5" in="SourceAlpha" result="shadowOffsetOuter1"/><feGaussianBlur in="shadowOffsetOuter1" result="shadowBlurOuter1" stdDeviation=".5"/><feColorMatrix in="shadowBlurOuter1" result="shadowMatrixOuter1" values="0 0 0 0 0 0 0 0 0 0 0 0 0 0 0 0 0 0 0.204257246 0"/><feMerge><feMergeNode in="shadowMatrixOuter1"/><feMergeNode in="SourceGraphic"/></feMerge></filter></defs><g fill="none" fill-rule="evenodd"><use fill="#000" filter="url(#ins-a)" xlink:href="#ins-b"/><use fill="#B2A3F6" xlink:href="#ins-b"/><use fill="url(#ins-c)" style="mix-blend-mode:soft-light" xlink:href="#ins-b"/><circle cx="16" cy="15" r="14.5" stroke="#000" stroke-opacity=".097"/><g fill="#FFF" fill-rule="nonzero" filter="url(#ins-d)" transform="translate(5 4)"><path d="M8.44555556,7.28712329 C7.68616402,7.28712329 7.07055556,6.68601957 7.07055556,5.94452055 C7.07055556,5.20302153 7.68616402,4.60191781 8.44555556,4.60191781 C9.20494709,4.60191781 9.82055556,5.20302153 9.82055556,5.94452055 C9.82055556,6.68601957 9.20494709,7.28712329 8.44555556,7.28712329 Z M12.3734722,5.75315068 C11.6140807,5.75315068 10.9984722,5.15204696 10.9984722,4.41054795 C10.9984722,3.66904893 11.6140807,3.06794521 12.3734722,3.06794521 C13.1328638,3.06794521 13.7484722,3.66904893 13.7484722,4.41054795 C13.7484722,5.15204696 13.1328638,5.75315068 12.3734722,5.75315068 Z M13.9455556,14.9584932 C13.186164,14.9584932 12.5705556,14.3573894 12.5705556,13.6158904 C12.5705556,12.8743914 13.186164,12.2732877 13.9455556,12.2732877 C14.7049471,12.2732877 15.3205556,12.8743914 15.3205556,13.6158904 C15.3205556,14.3573894 14.7049471,14.9584932 13.9455556,14.9584932 Z M0.785277778,13.040274 C0.351580837,13.040274 0,12.6968825 0,12.2732877 C0,11.8496928 0.351580837,11.5063014 0.785277778,11.5063014 C1.21897472,11.5063014 1.57055556,11.8496928 1.57055556,12.2732877 C1.57055556,12.6968825 1.21897472,13.040274 0.785277778,13.040274 Z M2.94555556,18.0279452 C2.61986097,18.0279452 2.35583333,17.7702329 2.35583333,17.4523288 C2.35583333,17.1344246 2.61986097,16.8767123 2.94555556,16.8767123 C3.27125015,16.8767123 3.53527778,17.1344246 3.53527778,17.4523288 C3.53527778,17.7702329 3.27125015,18.0279452 2.94555556,18.0279452 Z M9.23083333,21.8628767 C8.90513874,21.8628767 8.64111111,21.6051645 8.64111111,21.2872603 C8.64111111,20.9693561 8.90513874,20.7116438 9.23083333,20.7116438 C9.55652792,20.7116438 9.82055556,20.9693561 9.82055556,21.2872603 C9.82055556,21.6051645 9.55652792,21.8628767 9.23083333,21.8628767 Z M19.4455556,18.4106849 C19.119861,18.4106849 18.8558333,18.1529727 18.8558333,17.8350685 C18.8558333,17.5171643 19.119861,17.2594521 19.4455556,17.2594521 C19.7712501,17.2594521 20.0352778,17.5171643 20.0352778,17.8350685 C20.0352778,18.1529727 19.7712501,18.4106849 19.4455556,18.4106849 Z M13.1602778,17.2609589 C12.8345832,17.2609589 12.5705556,17.0032466 12.5705556,16.6853425 C12.5705556,16.3674383 12.8345832,16.109726 13.1602778,16.109726 C13.4859724,16.109726 13.75,16.3674383 13.75,16.6853425 C13.75,17.0032466 13.4859724,17.2609589 13.1602778,17.2609589 Z M16.6955556,14.5757534 C16.369861,14.5757534 16.1058333,14.3180412 16.1058333,14.000137 C16.1058333,13.6822328 16.369861,13.4245205 16.6955556,13.4245205 C17.0212501,13.4245205 17.2852778,13.6822328 17.2852778,14.000137 C17.2852778,14.3180412 17.0212501,14.5757534 16.6955556,14.5757534 Z M12.5705556,21.8628767 C12.1368586,21.8628767 11.7852778,21.5194852 11.7852778,21.0958904 C11.7852778,20.6722956 12.1368586,20.3289041 12.5705556,20.3289041 C13.0042525,20.3289041 13.3558333,20.6722956 13.3558333,21.0958904 C13.3558333,21.5194852 13.0042525,21.8628767 12.5705556,21.8628767 Z M16.1058333,12.2732877 C15.6721364,12.2732877 15.3205556,11.9298962 15.3205556,11.5063014 C15.3205556,11.0827065 15.6721364,10.7393151 16.1058333,10.7393151 C16.5395303,10.7393151 16.8911111,11.0827065 16.8911111,11.5063014 C16.8911111,11.9298962 16.5395303,12.2732877 16.1058333,12.2732877 Z M17.2852778,19.9446575 C16.8515808,19.9446575 16.5,19.6012661 16.5,19.1776712 C16.5,18.7540764 16.8515808,18.4106849 17.2852778,18.4106849 C17.7189747,18.4106849 18.0705556,18.7540764 18.0705556,19.1776712 C18.0705556,19.6012661 17.7189747,19.9446575 17.2852778,19.9446575 Z M1.76611111,16.109726 C1.22356805,16.109726 0.78375,15.6806554 0.78375,15.1513699 C0.78375,14.6220844 1.22356805,14.1930137 1.76611111,14.1930137 C2.30865417,14.1930137 2.74847222,14.6220844 2.74847222,15.1513699 C2.74847222,15.6806554 2.30865417,16.109726 1.76611111,16.109726 Z M11.1955556,19.9446575 C10.436164,19.9446575 9.82055556,19.3435538 9.82055556,18.6020548 C9.82055556,17.8605558 10.436164,17.2594521 11.1955556,17.2594521 C11.9549471,17.2594521 12.5705556,17.8605558 12.5705556,18.6020548 C12.5705556,19.3435538 11.9549471,19.9446575 11.1955556,19.9446575 Z M3.73083333,13.4245205 C2.9714418,13.4245205 2.35583333,12.8234168 2.35583333,12.0819178 C2.35583333,11.3404188 2.9714418,10.7393151 3.73083333,10.7393151 C4.49022486,10.7393151 5.10583333,11.3404188 5.10583333,12.0819178 C5.10583333,12.8234168 4.49022486,13.4245205 3.73083333,13.4245205 Z M11.1955556,16.4924658 C10.6530125,16.4924658 10.2131944,16.0633951 10.2131944,15.5341096 C10.2131944,15.0048241 10.6530125,14.5757534 11.1955556,14.5757534 C11.7380986,14.5757534 12.1779167,15.0048241 12.1779167,15.5341096 C12.1779167,16.0633951 11.7380986,16.4924658 11.1955556,16.4924658 Z M6.48083333,8.05561644 C6.15513874,8.05561644 5.89111111,7.79790418 5.89111111,7.48 C5.89111111,7.16209582 6.15513874,6.90438356 6.48083333,6.90438356 C6.80652792,6.90438356 7.07055556,7.16209582 7.07055556,7.48 C7.07055556,7.79790418 6.80652792,8.05561644 6.48083333,8.05561644 Z M10.2131944,10.3565753 C9.56264903,10.3565753 9.03527778,9.84115083 9.03527778,9.20534247 C9.03527778,8.5695341 9.56264903,8.05410959 10.2131944,8.05410959 C10.8637399,8.05410959 11.3911111,8.5695341 11.3911111,9.20534247 C11.3911111,9.84115083 10.8637399,10.3565753 10.2131944,10.3565753 Z M12.9631944,11.5063014 C12.5294975,11.5063014 12.1779167,11.1629099 12.1779167,10.7393151 C12.1779167,10.3157202 12.5294975,9.97232877 12.9631944,9.97232877 C13.3968914,9.97232877 13.7484722,10.3157202 13.7484722,10.7393151 C13.7484722,11.1629099 13.3968914,11.5063014 12.9631944,11.5063014 Z M14.3381944,1.91821918 C14.0124999,1.91821918 13.7484722,1.66050692 13.7484722,1.34260274 C13.7484722,1.02469856 14.0124999,0.766986301 14.3381944,0.766986301 C14.663889,0.766986301 14.9279167,1.02469856 14.9279167,1.34260274 C14.9279167,1.66050692 14.663889,1.91821918 14.3381944,1.91821918 Z M11.5881944,1.91671233 C11.0456514,1.91671233 10.6058333,1.48764166 10.6058333,0.958356164 C10.6058333,0.42907067 11.0456514,-7.10542736e-15 11.5881944,-7.10542736e-15 C12.1307375,-7.10542736e-15 12.5705556,0.42907067 12.5705556,0.958356164 C12.5705556,1.48764166 12.1307375,1.91671233 11.5881944,1.91671233 Z M12.1779167,8.05410959 C11.7442197,8.05410959 11.3926389,7.71071813 11.3926389,7.28712329 C11.3926389,6.86352845 11.7442197,6.52013699 12.1779167,6.52013699 C12.6116136,6.52013699 12.9631944,6.86352845 12.9631944,7.28712329 C12.9631944,7.71071813 12.6116136,8.05410959 12.1779167,8.05410959 Z M4.71319444,16.4939726 C4.06264903,16.4939726 3.53527778,15.9785481 3.53527778,15.3427397 C3.53527778,14.7069314 4.06264903,14.1915068 4.71319444,14.1915068 C5.36373986,14.1915068 5.89111111,14.7069314 5.89111111,15.3427397 C5.89111111,15.9785481 5.36373986,16.4939726 4.71319444,16.4939726 Z M16.1058333,17.6436986 C15.4552879,17.6436986 14.9279167,17.1282741 14.9279167,16.4924658 C14.9279167,15.8566574 15.4552879,15.3412329 16.1058333,15.3412329 C16.7563787,15.3412329 17.28375,15.8566574 17.28375,16.4924658 C17.28375,17.1282741 16.7563787,17.6436986 16.1058333,17.6436986 Z M14.5352778,20.3289041 C13.8847324,20.3289041 13.3573611,19.8134796 13.3573611,19.1776712 C13.3573611,18.5418629 13.8847324,18.0264384 14.5352778,18.0264384 C15.1858232,18.0264384 15.7131944,18.5418629 15.7131944,19.1776712 C15.7131944,19.8134796 15.1858232,20.3289041 14.5352778,20.3289041 Z M5.30291667,20.3289041 C4.54352514,20.3289041 3.92791667,19.7278004 3.92791667,18.9863014 C3.92791667,18.2448024 4.54352514,17.6436986 5.30291667,17.6436986 C6.0623082,17.6436986 6.67791667,18.2448024 6.67791667,18.9863014 C6.67791667,19.7278004 6.0623082,20.3289041 5.30291667,20.3289041 Z M1.17791667,10.3565753 C0.527371255,10.3565753 0,9.84115083 0,9.20534247 C0,8.5695341 0.527371255,8.05410959 1.17791667,8.05410959 C1.82846208,8.05410959 2.35583333,8.5695341 2.35583333,9.20534247 C2.35583333,9.84115083 1.82846208,10.3565753 1.17791667,10.3565753 Z"/><path d="M7.07055556,12.2732877 C6.20231791,12.2732877 5.49847222,11.5865047 5.49847222,10.7393151 C5.49847222,9.89212539 6.20231791,9.20534247 7.07055556,9.20534247 C7.93879321,9.20534247 8.64263889,9.89212539 8.64263889,10.7393151 C8.64263889,11.5865047 7.93879321,12.2732877 7.07055556,12.2732877 Z M15.3205556,9.97232877 C14.4523179,9.97232877 13.7484722,9.28554584 13.7484722,8.43835616 C13.7484722,7.59116649 14.4523179,6.90438356 15.3205556,6.90438356 C16.1887932,6.90438356 16.8926389,7.59116649 16.8926389,8.43835616 C16.8926389,9.28554584 16.1887932,9.97232877 15.3205556,9.97232877 Z M19.6411111,16.4939726 C18.9905657,16.4939726 18.4631944,15.9785481 18.4631944,15.3427397 C18.4631944,14.7069314 18.9905657,14.1915068 19.6411111,14.1915068 C20.2916565,14.1915068 20.8190278,14.7069314 20.8190278,15.3427397 C20.8190278,15.9785481 20.2916565,16.4939726 19.6411111,16.4939726 Z M20.8205556,11.8905479 C20.1700101,11.8905479 19.6426389,11.3751234 19.6426389,10.7393151 C19.6426389,10.1035067 20.1700101,9.58808219 20.8205556,9.58808219 C21.471101,9.58808219 21.9984722,10.1035067 21.9984722,10.7393151 C21.9984722,11.3751234 21.471101,11.8905479 20.8205556,11.8905479 Z M16.3029167,6.52013699 C15.7603736,6.52013699 15.3205556,6.09106632 15.3205556,5.56178082 C15.3205556,5.03249533 15.7603736,4.60342466 16.3029167,4.60342466 C16.8454597,4.60342466 17.2852778,5.03249533 17.2852778,5.56178082 C17.2852778,6.09106632 16.8454597,6.52013699 16.3029167,6.52013699 Z M16.4984722,3.45219178 C16.0647753,3.45219178 15.7131944,3.10880032 15.7131944,2.68520548 C15.7131944,2.26161064 16.0647753,1.91821918 16.4984722,1.91821918 C16.9321692,1.91821918 17.28375,2.26161064 17.28375,2.68520548 C17.28375,3.10880032 16.9321692,3.45219178 16.4984722,3.45219178 Z M18.2661111,4.21917808 C17.9404165,4.21917808 17.6763889,3.96146582 17.6763889,3.64356164 C17.6763889,3.32565746 17.9404165,3.06794521 18.2661111,3.06794521 C18.5918057,3.06794521 18.8558333,3.32565746 18.8558333,3.64356164 C18.8558333,3.96146582 18.5918057,4.21917808 18.2661111,4.21917808 Z M21.4102778,8.82260274 C21.0845832,8.82260274 20.8205556,8.56489048 20.8205556,8.2469863 C20.8205556,7.92908212 21.0845832,7.67136986 21.4102778,7.67136986 C21.7359724,7.67136986 22,7.92908212 22,8.2469863 C22,8.56489048 21.7359724,8.82260274 21.4102778,8.82260274 Z M4.51611111,3.83643836 C4.19041652,3.83643836 3.92638889,3.5787261 3.92638889,3.26082192 C3.92638889,2.94291774 4.19041652,2.68520548 4.51611111,2.68520548 C4.8418057,2.68520548 5.10583333,2.94291774 5.10583333,3.26082192 C5.10583333,3.5787261 4.8418057,3.83643836 4.51611111,3.83643836 Z M3.73083333,8.82260274 C3.40513874,8.82260274 3.14111111,8.56489048 3.14111111,8.2469863 C3.14111111,7.92908212 3.40513874,7.67136986 3.73083333,7.67136986 C4.05652792,7.67136986 4.32055556,7.92908212 4.32055556,8.2469863 C4.32055556,8.56489048 4.05652792,8.82260274 3.73083333,8.82260274 Z M5.30291667,9.58958904 C4.97722208,9.58958904 4.71319444,9.33187678 4.71319444,9.0139726 C4.71319444,8.69606842 4.97722208,8.43835616 5.30291667,8.43835616 C5.62861126,8.43835616 5.89263889,8.69606842 5.89263889,9.0139726 C5.89263889,9.33187678 5.62861126,9.58958904 5.30291667,9.58958904 Z M7.26611111,2.3009589 C6.94041652,2.3009589 6.67638889,2.04324665 6.67638889,1.72534247 C6.67638889,1.40743829 6.94041652,1.14972603 7.26611111,1.14972603 C7.5918057,1.14972603 7.85583333,1.40743829 7.85583333,1.72534247 C7.85583333,2.04324665 7.5918057,2.3009589 7.26611111,2.3009589 Z M21.4102778,13.8087671 C21.0845832,13.8087671 20.8205556,13.5510549 20.8205556,13.2331507 C20.8205556,12.9152465 21.0845832,12.6575342 21.4102778,12.6575342 C21.7359724,12.6575342 22,12.9152465 22,13.2331507 C22,13.5510549 21.7359724,13.8087671 21.4102778,13.8087671 Z M19.4455556,7.67136986 C18.686164,7.67136986 18.0705556,7.07026614 18.0705556,6.32876712 C18.0705556,5.58726811 18.686164,4.98616438 19.4455556,4.98616438 C20.2049471,4.98616438 20.8205556,5.58726811 20.8205556,6.32876712 C20.8205556,7.07026614 20.2049471,7.67136986 19.4455556,7.67136986 Z M18.2661111,10.7393151 C17.7235681,10.7393151 17.28375,10.3102444 17.28375,9.7809589 C17.28375,9.25167341 17.7235681,8.82260274 18.2661111,8.82260274 C18.8086542,8.82260274 19.2484722,9.25167341 19.2484722,9.7809589 C19.2484722,10.3102444 18.8086542,10.7393151 18.2661111,10.7393151 Z M4.91027778,6.52013699 C4.36773472,6.52013699 3.92791667,6.09106632 3.92791667,5.56178082 C3.92791667,5.03249533 4.36773472,4.60342466 4.91027778,4.60342466 C5.45282084,4.60342466 5.89263889,5.03249533 5.89263889,5.56178082 C5.89263889,6.09106632 5.45282084,6.52013699 4.91027778,6.52013699 Z M9.23083333,3.83493151 C8.68829027,3.83493151 8.24847222,3.40586084 8.24847222,2.87657534 C8.24847222,2.34728985 8.68829027,1.91821918 9.23083333,1.91821918 C9.77337639,1.91821918 10.2131944,2.34728985 10.2131944,2.87657534 C10.2131944,3.40586084 9.77337639,3.83493151 9.23083333,3.83493151 Z M6.67791667,4.21917808 C6.24421973,4.21917808 5.89263889,3.87578662 5.89263889,3.45219178 C5.89263889,3.02859694 6.24421973,2.68520548 6.67791667,2.68520548 C7.11161361,2.68520548 7.46319444,3.02859694 7.46319444,3.45219178 C7.46319444,3.87578662 7.11161361,4.21917808 6.67791667,4.21917808 Z M2.35583333,7.28712329 C1.92213639,7.28712329 1.57055556,6.94373182 1.57055556,6.52013699 C1.57055556,6.09654215 1.92213639,5.75315068 2.35583333,5.75315068 C2.78953027,5.75315068 3.14111111,6.09654215 3.14111111,6.52013699 C3.14111111,6.94373182 2.78953027,7.28712329 2.35583333,7.28712329 Z M18.8558333,13.4245205 C18.4221364,13.4245205 18.0705556,13.0811291 18.0705556,12.6575342 C18.0705556,12.2339394 18.4221364,11.8905479 18.8558333,11.8905479 C19.2895303,11.8905479 19.6411111,12.2339394 19.6411111,12.6575342 C19.6411111,13.0811291 19.2895303,13.4245205 18.8558333,13.4245205 Z M10.4102778,13.8087671 C9.65088625,13.8087671 9.03527778,13.2076634 9.03527778,12.4661644 C9.03527778,11.7246654 9.65088625,11.1235616 10.4102778,11.1235616 C11.1696693,11.1235616 11.7852778,11.7246654 11.7852778,12.4661644 C11.7852778,13.2076634 11.1696693,13.8087671 10.4102778,13.8087671 Z M7.85583333,14.5757534 C7.42213639,14.5757534 7.07055556,14.232362 7.07055556,13.8087671 C7.07055556,13.3851723 7.42213639,13.0417808 7.85583333,13.0417808 C8.28953027,13.0417808 8.64111111,13.3851723 8.64111111,13.8087671 C8.64111111,14.232362 8.28953027,14.5757534 7.85583333,14.5757534 Z M8.24847222,17.6436986 C7.59792681,17.6436986 7.07055556,17.1282741 7.07055556,16.4924658 C7.07055556,15.8566574 7.59792681,15.3412329 8.24847222,15.3412329 C8.89901763,15.3412329 9.42638889,15.8566574 9.42638889,16.4924658 C9.42638889,17.1282741 8.89901763,17.6436986 8.24847222,17.6436986 Z M8.24847222,19.9446575 C7.81477528,19.9446575 7.46319444,19.6012661 7.46319444,19.1776712 C7.46319444,18.7540764 7.81477528,18.4106849 8.24847222,18.4106849 C8.68216916,18.4106849 9.03375,18.7540764 9.03375,19.1776712 C9.03375,19.6012661 8.68216916,19.9446575 8.24847222,19.9446575 Z" opacity=".5"/></g></g></svg>

<svg xmlns="http://www.w3.org/2000/svg" xmlns:xlink="http://www.w3.org/1999/xlink" width="32" height="32" viewBox="0 0 32 32"><defs><linearGradient id="c" x1="50%" x2="50%" y1="0%" y2="100%"><stop offset="0%" stop-color="#FFF" stop-opacity=".5"/><stop offset="100%" stop-opacity=".5"/></linearGradient><circle id="b" cx="16" cy="15" r="15"/><filter id="a" width="111.7%" height="111.7%" x="-5.8%" y="-4.2%" filterUnits="objectBoundingBox"><feOffset dy=".5" in="SourceAlpha" result="shadowOffsetOuter1"/><feGaussianBlur in="shadowOffsetOuter1" result="shadowBlurOuter1" stdDeviation=".5"/><feComposite in="shadowBlurOuter1" in2="SourceAlpha" operator="out" result="shadowBlurOuter1"/><feColorMatrix in="shadowBlurOuter1" values="0 0 0 0 0 0 0 0 0 0 0 0 0 0 0 0 0 0 0.199473505 0"/></filter><filter id="d" width="115.9%" height="115.9%" x="-8%" y="-5.7%" filterUnits="objectBoundingBox"><feOffset dy=".5" in="SourceAlpha" result="shadowOffsetOuter1"/><feGaussianBlur in="shadowOffsetOuter1" result="shadowBlurOuter1" stdDeviation=".5"/><feColorMatrix in="shadowBlurOuter1" result="shadowMatrixOuter1" values="0 0 0 0 0 0 0 0 0 0 0 0 0 0 0 0 0 0 0.204257246 0"/><feMerge><feMergeNode in="shadowMatrixOuter1"/><feMergeNode in="SourceGraphic"/></feMerge></filter></defs><g fill="none" fill-rule="evenodd"><use fill="#000" filter="url(#a)" xlink:href="#b"/><use fill="#B2A3F6" xlink:href="#b"/><use fill="url(#c)" style="mix-blend-mode:soft-light" xlink:href="#b"/><circle cx="16" cy="15" r="14.5" stroke="#000" stroke-opacity=".097"/><g fill="#FFF" fill-rule="nonzero" filter="url(#d)" transform="translate(5 4)"><path d="M8.446 7.287c-.76 0-1.375-.601-1.375-1.342 0-.742.615-1.343 1.375-1.343.759 0 1.375.601 1.375 1.343 0 .741-.616 1.342-1.375 1.342zm3.927-1.534c-.759 0-1.375-.601-1.375-1.342 0-.742.616-1.343 1.375-1.343.76 0 1.375.601 1.375 1.343 0 .741-.615 1.342-1.375 1.342zm1.573 9.205c-.76 0-1.375-.6-1.375-1.342 0-.742.615-1.343 1.375-1.343.759 0 1.375.601 1.375 1.343 0 .741-.616 1.342-1.375 1.342zM.786 13.04A.776.776 0 0 1 0 12.273c0-.423.352-.767.785-.767.434 0 .786.344.786.767a.776.776 0 0 1-.786.767zm2.16 4.988a.583.583 0 0 1-.59-.576c0-.318.264-.575.59-.575.325 0 .59.257.59.575a.583.583 0 0 1-.59.576zm6.285 3.835a.583.583 0 0 1-.59-.576c0-.318.264-.575.59-.575.326 0 .59.257.59.575a.583.583 0 0 1-.59.576zm10.215-3.452a.583.583 0 0 1-.59-.576c0-.318.264-.576.59-.576.325 0 .59.258.59.576a.583.583 0 0 1-.59.576zm-6.286-1.15a.583.583 0 0 1-.59-.576c0-.318.265-.575.59-.575.326 0 .59.257.59.575a.583.583 0 0 1-.59.576zm3.536-2.685a.583.583 0 0 1-.59-.576c0-.318.264-.575.59-.575.325 0 .59.257.59.575a.583.583 0 0 1-.59.576zm-4.125 7.287a.776.776 0 0 1-.786-.767c0-.424.352-.767.786-.767.433 0 .785.343.785.767a.776.776 0 0 1-.785.767zm3.535-9.59a.776.776 0 0 1-.785-.767c0-.423.351-.767.785-.767.434 0 .785.344.785.767a.776.776 0 0 1-.785.767zm1.18 7.672a.776.776 0 0 1-.786-.767c0-.424.352-.767.785-.767.434 0 .786.343.786.767a.776.776 0 0 1-.786.767zM1.765 16.11a.97.97 0 0 1-.982-.959.97.97 0 0 1 .982-.958.97.97 0 0 1 .982.958.97.97 0 0 1-.982.959zm9.43 3.835c-.76 0-1.375-.601-1.375-1.343 0-.741.615-1.343 1.375-1.343.759 0 1.375.602 1.375 1.343 0 .742-.616 1.343-1.375 1.343zm-7.465-6.52c-.76 0-1.375-.602-1.375-1.343 0-.742.615-1.343 1.375-1.343s1.375.601 1.375 1.343c0 .741-.616 1.343-1.375 1.343zm7.465 3.067a.97.97 0 0 1-.983-.958c0-.53.44-.958.983-.958a.97.97 0 0 1 .982.958.97.97 0 0 1-.982.958zM6.48 8.056a.583.583 0 0 1-.59-.576c0-.318.264-.576.59-.576.326 0 .59.258.59.576a.583.583 0 0 1-.59.576zm3.732 2.3c-.65 0-1.178-.515-1.178-1.15 0-.636.528-1.152 1.178-1.152.65 0 1.178.516 1.178 1.151 0 .636-.527 1.152-1.178 1.152zm2.75 1.15a.776.776 0 0 1-.785-.767c0-.423.351-.767.785-.767.434 0 .785.344.785.767a.776.776 0 0 1-.785.767zm1.375-9.588a.583.583 0 0 1-.59-.575c0-.318.264-.576.59-.576.326 0 .59.258.59.576a.583.583 0 0 1-.59.575zm-2.75-.001a.97.97 0 0 1-.982-.959.97.97 0 0 1 .982-.958.97.97 0 0 1 .983.958.97.97 0 0 1-.983.959zm.59 6.137a.776.776 0 0 1-.785-.767c0-.423.351-.767.785-.767.434 0 .785.344.785.767a.776.776 0 0 1-.785.767zm-7.465 8.44c-.65 0-1.178-.515-1.178-1.151s.528-1.151 1.178-1.151c.65 0 1.178.515 1.178 1.15 0 .637-.527 1.152-1.178 1.152zm11.393 1.15c-.65 0-1.178-.516-1.178-1.152 0-.635.527-1.15 1.178-1.15.65 0 1.178.515 1.178 1.15 0 .636-.528 1.152-1.178 1.152zm-1.57 2.685c-.651 0-1.179-.516-1.179-1.151 0-.636.528-1.152 1.178-1.152.65 0 1.178.516 1.178 1.152 0 .635-.527 1.15-1.178 1.15zm-9.233 0c-.76 0-1.375-.601-1.375-1.343 0-.741.616-1.342 1.375-1.342.76 0 1.375.6 1.375 1.342 0 .742-.616 1.343-1.375 1.343zm-4.125-9.972A1.166 1.166 0 0 1 0 9.205c0-.635.527-1.15 1.178-1.15.65 0 1.178.515 1.178 1.15 0 .636-.528 1.152-1.178 1.152z"/><path d="M7.07 12.273c-.868 0-1.572-.686-1.572-1.534 0-.847.704-1.534 1.573-1.534.868 0 1.572.687 1.572 1.534 0 .848-.704 1.534-1.572 1.534zm8.25-2.3c-.868 0-1.572-.687-1.572-1.535 0-.847.704-1.534 1.573-1.534.868 0 1.572.687 1.572 1.534 0 .848-.704 1.534-1.572 1.534zm4.321 6.521c-.65 0-1.178-.515-1.178-1.151s.528-1.151 1.178-1.151c.65 0 1.178.515 1.178 1.15 0 .637-.527 1.152-1.178 1.152zm1.18-4.603a1.165 1.165 0 0 1-1.178-1.152c0-.635.527-1.15 1.178-1.15.65 0 1.177.515 1.177 1.15 0 .636-.527 1.152-1.177 1.152zm-4.518-5.37a.97.97 0 0 1-.982-.96.97.97 0 0 1 .982-.958.97.97 0 0 1 .982.959.97.97 0 0 1-.982.958zm.195-3.069a.776.776 0 0 1-.785-.767c0-.423.352-.767.785-.767.434 0 .786.344.786.767a.776.776 0 0 1-.786.767zm1.768.767a.583.583 0 0 1-.59-.575c0-.318.264-.576.59-.576.326 0 .59.258.59.576a.583.583 0 0 1-.59.575zm3.144 4.604a.583.583 0 0 1-.59-.576c0-.318.265-.576.59-.576.326 0 .59.258.59.576a.583.583 0 0 1-.59.576zM4.516 3.836a.583.583 0 0 1-.59-.575c0-.318.264-.576.59-.576.326 0 .59.258.59.576a.583.583 0 0 1-.59.575zm-.785 4.987a.583.583 0 0 1-.59-.576c0-.318.264-.576.59-.576.326 0 .59.258.59.576a.583.583 0 0 1-.59.576zm1.572.767a.583.583 0 0 1-.59-.576c0-.318.264-.576.59-.576.326 0 .59.258.59.576a.583.583 0 0 1-.59.576zM7.266 2.3a.583.583 0 0 1-.59-.576c0-.318.264-.575.59-.575.326 0 .59.257.59.575a.583.583 0 0 1-.59.576zM21.41 13.809a.583.583 0 0 1-.59-.576c0-.318.265-.575.59-.575.326 0 .59.257.59.575a.583.583 0 0 1-.59.576zM19.446 7.67c-.76 0-1.375-.6-1.375-1.342 0-.742.615-1.343 1.375-1.343.759 0 1.375.601 1.375 1.343 0 .741-.616 1.342-1.375 1.342zm-1.18 3.068a.97.97 0 0 1-.982-.958c0-.53.44-.958.982-.958a.97.97 0 0 1 .982.958.97.97 0 0 1-.982.958zM4.91 6.52a.97.97 0 0 1-.982-.958c0-.53.44-.959.982-.959a.97.97 0 0 1 .983.959.97.97 0 0 1-.983.958zm4.32-2.685a.97.97 0 0 1-.982-.958c0-.53.44-.959.983-.959a.97.97 0 0 1 .982.959.97.97 0 0 1-.982.958zm-2.552.384a.776.776 0 0 1-.785-.767c0-.423.351-.767.785-.767.434 0 .785.344.785.767a.776.776 0 0 1-.785.767zM2.356 7.287a.776.776 0 0 1-.785-.767c0-.423.351-.767.785-.767.434 0 .785.344.785.767a.776.776 0 0 1-.785.767zm16.5 6.138a.776.776 0 0 1-.785-.767c0-.424.351-.767.785-.767.434 0 .785.343.785.767a.776.776 0 0 1-.785.767zm-8.446.384c-.76 0-1.375-.601-1.375-1.343 0-.741.616-1.342 1.375-1.342.76 0 1.375.6 1.375 1.342 0 .742-.615 1.343-1.375 1.343zm-2.554.767a.776.776 0 0 1-.785-.767c0-.424.351-.767.785-.767.434 0 .785.343.785.767a.776.776 0 0 1-.785.767zm.392 3.068c-.65 0-1.177-.516-1.177-1.152 0-.635.527-1.15 1.177-1.15.651 0 1.178.515 1.178 1.15 0 .636-.527 1.152-1.178 1.152zm0 2.3a.776.776 0 0 1-.785-.766c0-.424.352-.767.785-.767.434 0 .786.343.786.767a.776.776 0 0 1-.786.767z" opacity=".5"/></g></g></svg>
